X: 33247
T: Pull The Knife And Stick It Again
R: jig
M: 6/8
K: Edorian
D|:~E3 GFE|DB,E DB,D|~E3 GFE|~A3 BAG|
~E3 GFE|DB,E DEF|GFE FED|1 B,ED EFD:|2 B,ED E3||
|:edB BAF|EDB, D2d|edB BAF|ABc def|
edB BAF|EDB, DEF|GFE FED|1 B,ED E3:|2 B,ED EFD||

